public/assets/images/icons/feature-icon4.svg

<svg width="32" height="32" viewBox="0 0 32 32" fill="none" xmlns="http://www.w3.org/2000/svg">
<g clip-path="url(#clip0_1182_4027)">
<path d="M17.7321 0.691414C17.6348 0.320288 17.317 0.0406715 16.9275 0.0203357C16.6609 0.00508393 16.3996 0 16.1279 0C6.84089 0 -0.61128 7.78352 0.0396312 17.1379C0.593162 25.0841 7.1279 31.5001 15.1438 31.9728C23.1598 32.4456 30.5299 26.6906 31.9856 18.963C32.0522 18.6174 31.883 18.2666 31.5909 18.0734C21.6735 11.6168 18.6444 4.26542 17.7321 0.691414ZM17.3887 22.654V24.6062C17.3887 24.835 17.235 24.9926 16.9992 24.9926H15.4207C15.19 24.9926 15.0311 24.8401 15.0311 24.6062V22.654C13.4781 22.3947 12.2583 21.627 11.4332 20.6763C11.2794 20.4984 11.305 20.2137 11.4844 19.929L12.3916 18.6682C12.5966 18.3581 12.8324 18.4089 13.0373 18.5665C14.0983 19.3647 14.9799 19.7968 15.9639 19.7968C16.8198 19.7968 17.3887 19.4613 17.3887 18.7445C17.3887 18.1293 16.9992 17.8446 16.0664 17.4582L14.4622 16.8176C12.8324 16.177 11.6894 15.0992 11.6894 13.3504C11.6894 11.3219 13.1655 10.0103 15.0311 9.6544V7.39204C15.0311 7.16326 15.1848 7.00566 15.4207 7.00566H16.9992C17.2298 7.00566 17.3887 7.15818 17.3887 7.39204V9.67978C18.5522 9.93905 19.5875 10.5543 20.3665 11.4795C20.5203 11.6575 20.4691 11.8659 20.3409 12.0184L19.2031 13.3809C19.0237 13.5843 18.8392 13.5588 18.6085 13.3809C17.7782 12.6895 17.0556 12.3286 16.3021 12.3286C15.4719 12.3286 15.0875 12.7911 15.0875 13.3301C15.0875 13.9452 15.6051 14.2808 16.3021 14.535L18.0909 15.2263C19.6951 15.8669 20.9662 16.9702 20.9406 18.897C20.9149 21.0271 19.3876 22.2879 17.3939 22.6489L17.3887 22.654Z" fill="black"/>
</g>
<defs>
<clipPath id="clip0_1182_4027">
<rect width="32" height="32" fill="white"/>
</clipPath>
</defs>
</svg>

<svg xmlns="http://www.w3.org/2000/svg" width="32" height="32" fill="none"><g clip-path="url(#a)"><path fill="#000" d="M17.732.691a.89.89 0 0 0-.805-.67C16.661.004 16.4 0 16.127 0 6.842 0-.61 7.784.04 17.138.593 25.084 7.128 31.5 15.144 31.973s15.386-5.282 16.842-13.01a.88.88 0 0 0-.395-.89C21.674 11.617 18.644 4.265 17.732.691m-.343 21.963v1.952c0 .229-.154.387-.39.387h-1.578c-.231 0-.39-.153-.39-.387v-1.952c-1.553-.26-2.773-1.027-3.598-1.978-.154-.178-.128-.462.051-.747l.908-1.26c.205-.31.44-.26.645-.102 1.061.798 1.943 1.23 2.927 1.23.856 0 1.425-.336 1.425-1.053 0-.615-.39-.9-1.323-1.286l-1.604-.64c-1.63-.641-2.773-1.719-2.773-3.468 0-2.028 1.476-3.34 3.342-3.696V7.392c0-.229.154-.386.39-.386h1.578c.23 0 .39.152.39.386V9.68a5.4 5.4 0 0 1 2.977 1.8c.154.178.103.386-.025.538l-1.138 1.363c-.18.203-.364.178-.594 0-.83-.691-1.553-1.052-2.307-1.052-.83 0-1.214.462-1.214 1.001 0 .615.517.95 1.214 1.205l1.789.691c1.604.64 2.875 1.744 2.85 3.671-.026 2.13-1.553 3.39-3.547 3.752z"/></g><defs><clipPath id="a"><path fill="#fff" d="M0 0h32v32H0z"/></clipPath></defs></svg>
